X:16
T:Patsy Geary's
M:6/8
L:1/8
R:jig
K:D
A|:"D"F2A AFA|"G"BdB "D"A2G|F2A d2e|f3 fef|
"G"g3 "D"f3|"A"efe "G"d2B|1 "D"A2A AFD|"A"E3-E2A:|2 "D"A2A "A"f2e|"D"d3-d2e|
|:"D"f2e "G"f2e|"D"f2e "A"fga|"D"A2A "G"BAG|"D"A3 ABd|
"A"e2d e2d|e2d "D"dfa|"G"baf "A"afe|1 "D"d3-d3e:|2 "D"d3-d2||
